packages/web/src/assets/images/icons/approve.svg

<svg width="19" height="14" viewBox="0 0 19 14" fill="none" xmlns="http://www.w3.org/2000/svg">
    <path fill-rule="evenodd" clip-rule="evenodd" d="M6.53929 11.3211L1.59379 6.37556C1.39079 6.17256 1.14854 6.11006 0.867039 6.18806C0.585539 6.26606 0.409789 6.44181 0.339789 6.71531C0.269789 6.98881 0.336289 7.23481 0.539289 7.45331L6.53929 13.4533L18.5393 1.45331C18.6798 1.29681 18.7463 1.11706 18.7388 0.914062C18.7313 0.711063 18.653 0.535312 18.504 0.386812C18.355 0.238312 18.183 0.164062 17.988 0.164062C17.793 0.164063 17.6173 0.234312 17.4608 0.374812L6.53929 11.3211Z" fill="#148751"/>
</svg>

<svg fill="none" height="14" viewBox="0 0 19 14" width="19" xmlns="http://www.w3.org/2000/svg"><path clip-rule="evenodd" d="m6.53929 11.3211-4.9455-4.94554c-.203-.203-.44525-.2655-.726751-.1875-.2815.078-.45725.25375-.52725.52725s-.0035.5195.1995.738l6.000001 5.99999 12.00001-11.99999c.1405-.1565.207-.33625.1995-.539248-.0075-.202999-.0858-.37875-.2348-.52725s-.321-.22275-.516-.22275c-.195.000001-.3707.07025-.5272.21075z" fill="#148751" fill-rule="evenodd"/></svg>
